icons/line/fire.svg

<svg width="24" height="24" viewBox="0 0 24 24" fill="none" xmlns="http://www.w3.org/2000/svg">
<path fill-rule="evenodd" clip-rule="evenodd" d="M12.7701 2.3621C12.4434 1.96765 11.8715 1.88382 11.4453 2.16793C10.7941 2.60207 9.95 3.47275 9.26359 4.74051C8.75096 5.68732 8.31899 6.86837 8.11908 8.27892C8.09121 8.25792 8.06345 8.23671 8.03585 8.21531C7.51539 7.81173 7.1714 7.43081 7.04379 7.149C6.90564 6.84393 6.62395 6.62826 6.2934 6.57449C5.96285 6.52072 5.62733 6.63598 5.3996 6.88154C3.91128 8.48643 3 10.6379 3 13C3 17.9705 7.02944 22 12 22C16.9706 22 21 17.9705 21 13C21 9.57017 19.0811 6.59005 16.263 5.07191C16.2479 5.06374 16.2325 5.05596 16.2169 5.04859C14.6221 4.29294 13.2379 2.9269 12.7701 2.3621ZM11.0223 5.69276C11.3221 5.1392 11.6451 4.70766 11.9325 4.39198C12.7206 5.16644 13.9396 6.17756 15.3358 6.84419C17.5205 8.03091 19 10.3434 19 13C19 16.866 15.866 20 12 20C8.13401 20 5 16.866 5 13C5 11.5977 5.41158 10.2928 6.12134 9.19799C6.3473 9.42055 6.58478 9.62095 6.81029 9.79581C7.42261 10.2706 8.08077 10.6584 8.55279 10.8944C8.86278 11.0494 9.23092 11.0328 9.52574 10.8506C9.82055 10.6684 10 10.3466 10 9.99998C10 8.1545 10.4646 6.72294 11.0223 5.69276ZM13.2898 10.3867C12.9612 9.96339 12.3572 9.87446 11.9205 10.185C11.6104 10.4056 11.2811 10.7876 11.028 11.2862C10.9855 11.37 10.9447 11.4578 10.9062 11.5496C10.8788 11.5429 10.8511 11.5373 10.823 11.5328C10.4824 11.4789 10.1381 11.6042 9.91185 11.8644C9.34112 12.5208 9 13.3905 9 14.3333C9 16.2966 10.5072 18 12.5 18C14.4928 18 16 16.2966 16 14.3333C16 12.9674 15.283 11.7496 14.1822 11.117C14.1667 11.1081 14.151 11.0997 14.1351 11.0916C13.9613 11.0038 13.7786 10.8695 13.6131 10.7214C13.4478 10.5735 13.332 10.441 13.2898 10.3867ZM11 14.3333C11 14.2777 11.0024 14.2228 11.0072 14.1689C11.0366 14.1857 11.0649 14.2013 11.0919 14.2157C11.4019 14.381 11.7758 14.3715 12.077 14.1908C12.3782 14.0101 12.5625 13.6846 12.5625 13.3333C12.5625 13.0153 12.609 12.7492 12.6751 12.5324C12.8385 12.6514 13.0159 12.7645 13.204 12.8618C13.6611 13.1334 14 13.6762 14 14.3333C14 15.3156 13.2686 16 12.5 16C11.7314 16 11 15.3156 11 14.3333Z" fill="currentColor"/>
</svg>

<svg width="24" height="24" fill="none" xmlns="http://www.w3.org/2000/svg"><path fill-rule="evenodd" clip-rule="evenodd" d="M12.77 2.362a1 1 0 00-1.325-.194c-.65.434-1.495 1.305-2.181 2.573a10.504 10.504 0 00-1.145 3.538 7.593 7.593 0 01-.083-.064c-.52-.403-.865-.784-.992-1.066A1 1 0 005.4 6.882a9 9 0 1010.817-1.833c-1.595-.756-2.98-2.122-3.447-2.687zm-1.748 3.33c.3-.553.623-.984.91-1.3.789.774 2.008 1.786 3.404 2.452a7 7 0 11-9.214 2.354c.225.223.463.423.688.598.613.475 1.27.862 1.743 1.098A1 1 0 0010 10c0-1.845.465-3.277 1.022-4.307zm2.268 4.695a1 1 0 00-1.37-.202c-.31.22-.639.603-.892 1.101a4.017 4.017 0 00-.122.264 1 1 0 00-.994.315A3.756 3.756 0 009 14.332C9 16.297 10.507 18 12.5 18s3.5-1.703 3.5-3.667c0-1.366-.717-2.583-1.818-3.216a2.536 2.536 0 01-.57-.396 2.889 2.889 0 01-.322-.334zM11 14.333c0-.055.002-.11.007-.164l.085.047a1 1 0 001.47-.883c0-.318.047-.584.113-.8.163.118.34.232.529.329.457.271.796.814.796 1.471 0 .983-.731 1.667-1.5 1.667s-1.5-.684-1.5-1.667z" fill="currentColor"/></svg>
